X:1
T:Both Sides Now
M:4/4
L:1/8
K:G
 D2 D2 C2 B,2| C D2 G,- G,2 z B,| B,2 D2 D F3-| FF G G- G4| z GG BC D3|\
 C/2B,/2 C- C6| z DD C C3 D| A,6 z D| D3 D C2 B,2| C2 D G,- G,2 z B,-|\
 B, B,2D-D D2 F-| F2 FG G4| z G2 G/2B/2 C2 D2-| D2 C/2B,/2 C- C4| z D D2- DC CD|\
 A,6 B2| B G3 A2 B2| c2 B2 D3 G| c B2 D- D2 G2| c- B2 D D3 F| F3 G F2 E2|\
 D3 A, G,2 z D|D-CC-B, B,2 G,2-| G,2 G,6-| G,4 z2B,-A,| G,8-| G,8|\
